flags/in-tn.svg

<svg width="512" height="512" viewBox="0 0 512 512" fill="none" xmlns="http://www.w3.org/2000/svg">
<rect width="512" height="512" fill="var(--flag-palette-white, #eeeeee)"/>
<path d="M256 32C201.365 32 148.968 53.7035 110.336 92.336C71.7035 130.968 50 183.365 50 238C50 292.635 71.7035 345.031 110.336 383.664C148.968 422.297 201.365 444 256 444C310.635 444 363.031 422.297 401.664 383.664C440.297 345.031 462 292.635 462 238C462 183.365 440.297 130.968 401.664 92.336C363.031 53.7035 310.635 32 256 32ZM256 40C288.767 39.9982 321.022 48.1284 349.873 63.6615C378.724 79.1947 403.269 101.645 421.308 129C439.346 156.355 450.314 187.759 453.227 220.396C456.14 253.033 450.908 285.883 438 316H395C405.829 296.851 412.541 275.652 414.704 253.76C416.867 231.867 414.435 209.765 407.563 188.867C400.692 167.968 389.531 148.736 374.797 132.4C360.063 116.064 342.081 102.985 322 94V102C340.955 111.102 357.8 124.063 371.456 140.053C385.112 156.042 395.278 174.708 401.303 194.853C407.328 214.999 409.079 236.181 406.444 257.043C403.809 277.904 396.845 297.985 386 316H385V388C349.186 419.03 303.387 436.111 256 436.111C208.613 436.111 162.814 419.03 127 388V316C116.121 298.047 109.105 278.023 106.399 257.207C103.694 236.39 105.358 215.238 111.286 195.101C117.215 174.963 127.276 156.283 140.829 140.253C154.383 124.223 171.129 111.195 190 102V94C170.023 103.104 152.148 116.246 137.5 132.599C122.853 148.952 111.75 168.161 104.893 189.016C98.0348 209.872 95.5701 231.921 97.6539 253.776C99.7377 275.63 106.325 296.817 117 316H74C61.0918 285.883 55.8599 253.033 58.7732 220.396C61.6865 187.759 72.654 156.355 90.6923 129C108.731 101.645 133.276 79.1947 162.127 63.6615C190.978 48.1284 223.233 39.9982 256 40ZM256 52C228.784 52.0072 201.9 57.9871 177.247 69.5177C152.594 81.0484 130.772 97.8488 113.32 118.733C95.8688 139.618 83.2131 164.078 76.2463 190.388C69.2794 216.697 68.1713 244.215 73 271C73.1234 272.054 73.4552 273.073 73.9761 273.997C74.497 274.922 75.1966 275.733 76.0342 276.385C76.8718 277.036 77.8306 277.514 78.8548 277.792C79.879 278.069 80.9482 278.14 82 278C83.0539 277.877 84.0727 277.545 84.9971 277.024C85.9216 276.503 86.7331 275.803 87.3846 274.966C88.036 274.128 88.5144 273.169 88.7917 272.145C89.069 271.121 89.1398 270.052 89 269L86 238C85.8903 214.296 90.7389 190.832 100.234 169.113C109.73 147.394 123.663 127.901 141.138 111.886C158.613 95.8701 179.244 83.686 201.706 76.1159C224.169 68.5457 247.966 65.7567 271.57 67.9281C295.175 70.0994 318.064 77.183 338.768 88.724C359.473 100.265 377.535 116.008 391.795 134.943C406.055 153.878 416.198 175.586 421.572 198.672C426.946 221.759 427.432 245.714 423 269C422.86 270.052 422.931 271.121 423.208 272.145C423.486 273.169 423.964 274.128 424.615 274.966C425.267 275.803 426.078 276.503 427.003 277.024C427.927 277.545 428.946 277.877 430 278C431.052 278.14 432.121 278.069 433.145 277.792C434.169 277.514 435.128 277.036 435.966 276.385C436.803 275.733 437.503 274.922 438.024 273.997C438.545 273.073 438.877 272.054 439 271C443.649 244.239 442.412 216.787 435.375 190.552C428.339 164.318 415.672 139.931 398.255 119.088C380.839 98.2454 359.091 81.4469 334.524 69.8611C309.957 58.2752 283.161 52.1803 256 52ZM63 355C61.6022 354.978 60.2231 355.323 59 356C58.0746 356.519 57.2618 357.217 56.6088 358.054C55.9559 358.89 55.4758 359.848 55.1966 360.872C54.9174 361.896 54.8447 362.965 54.9826 364.017C55.1205 365.069 55.4664 366.083 56 367C77.5688 400.437 107.177 427.933 142.116 446.973C177.055 466.012 216.21 475.988 256 475.988C295.79 475.988 334.945 466.012 369.884 446.973C404.823 427.933 434.431 400.437 456 367C456.534 366.083 456.879 365.069 457.017 364.017C457.155 362.965 457.083 361.896 456.803 360.872C456.524 359.848 456.044 358.89 455.391 358.054C454.738 357.217 453.925 356.519 453 356C452.083 355.466 451.069 355.121 450.017 354.983C448.965 354.845 447.896 354.917 446.872 355.197C445.848 355.476 444.89 355.956 444.054 356.609C443.217 357.262 442.519 358.075 442 359C421.832 389.952 394.259 415.382 361.78 432.984C329.301 450.587 292.943 459.806 256 459.806C219.057 459.806 182.699 450.587 150.22 432.984C117.741 415.382 90.1676 389.952 70 359C69.2918 357.773 68.2706 356.757 67.0407 356.054C65.8109 355.351 64.4164 354.987 63 355Z" fill="var(--flag-palette-dark-green, #496e2d)"/>
<path d="M199 86V137L174 290L136 321H376L338 290L313 137V86H199Z" fill="var(--flag-palette-dark-yellow, #ffc635)"/>
<path d="M136 321H376V345H136V321Z" fill="var(--flag-palette-gold, #ff9811)"/>
<path d="M136 345H376V369H136V345Z" fill="var(--flag-palette-white, #eeeeee)"/>
<path d="M136 369H376V393H136V369Z" fill="var(--flag-palette-green, #6da544)"/>
<path d="M191 365C195.418 365 199 361.418 199 357C199 352.582 195.418 349 191 349C186.582 349 183 352.582 183 357C183 361.418 186.582 365 191 365Z" fill="var(--flag-palette-blue, #0052b4)"/>
<path d="M321 365C316.582 365 313 361.418 313 357C313 352.582 316.582 349 321 349C325.418 349 329 352.582 329 357C329 361.418 325.418 365 321 365Z" fill="var(--flag-palette-blue, #0052b4)"/>
<path d="M256 252C250.696 252 245.609 254.107 241.858 257.858C238.107 261.609 236 266.696 236 272C234.272 269.006 231.798 266.511 228.818 264.759C225.839 263.006 222.456 262.056 219 262C213.696 262 208.609 264.107 204.858 267.858C201.107 271.609 199 276.696 199 282C199 287.304 201.107 292.391 204.858 296.142C208.609 299.893 213.696 302 219 302C219.999 302.075 221.001 302.075 222 302V373H221C216 373 211 377 211 383V391C211 396 216 401 221 401H222V402C222 408 227 412 232 412H280C286 412 290 408 290 402V401H291C297 401 301 396 301 391V383C301 377 297 373 291 373H290V302C290.999 302.075 292.001 302.075 293 302C298.304 302 303.391 299.893 307.142 296.142C310.893 292.391 313 287.304 313 282C313 276.696 310.893 271.609 307.142 267.858C303.391 264.107 298.304 262 293 262C289.444 262.155 285.994 263.256 283.005 265.19C280.017 267.123 277.598 269.82 276 273C276.008 272.667 276.008 272.333 276 272C276 266.696 273.893 261.609 270.142 257.858C266.391 254.107 261.304 252 256 252Z" fill="var(--flag-palette-bright-red, #d80027)"/>
</svg>

<svg xmlns="http://www.w3.org/2000/svg" width="512" height="512" fill="none"><path fill="var(--flag-palette-white, #eeeeee)" d="M0 0h512v512H0z"/><path fill="var(--flag-palette-dark-green, #496e2d)" d="M256 32a206 206 0 1 0 0 412 206 206 0 0 0 0-412m0 8a198 198 0 0 1 182 276h-43a158 158 0 0 0-73-222v8a151 151 0 0 1 64 214h-1v72a197 197 0 0 1-258 0v-72a151 151 0 0 1 63-214v-8a159 159 0 0 0-73 222H74A198 198 0 0 1 256 40m0 12A186 186 0 0 0 73 271a8 8 0 0 0 9 7 8 8 0 0 0 7-9l-3-31a170 170 0 1 1 337 31 8 8 0 0 0 7 9 8 8 0 0 0 9-7A187 187 0 0 0 256 52M63 355a8 8 0 0 0-7.8 5.9 8 8 0 0 0 .8 6.1 238 238 0 0 0 400 0 8 8 0 0 0-3-11 8 8 0 0 0-11 3 222 222 0 0 1-372 0 8 8 0 0 0-7-4"/><path fill="var(--flag-palette-dark-yellow, #ffc635)" d="M199 86v51l-25 153-38 31h240l-38-31-25-153V86z"/><path fill="var(--flag-palette-gold, #ff9811)" d="M136 321h240v24H136z"/><path fill="var(--flag-palette-white, #eeeeee)" d="M136 345h240v24H136z"/><path fill="var(--flag-palette-green, #6da544)" d="M136 369h240v24H136z"/><path fill="var(--flag-palette-blue, #0052b4)" d="M191 365a8 8 0 1 0 0-16 8 8 0 0 0 0 16m130 0a8 8 0 1 1 0-16 8 8 0 0 1 0 16"/><path fill="var(--flag-palette-bright-red, #d80027)" d="M256 252a20 20 0 0 0-20 20 20 20 0 0 0-17-10 20 20 0 0 0 0 40h3v71h-1c-5 0-10 4-10 10v8c0 5 5 10 10 10h1v1c0 6 5 10 10 10h48c6 0 10-4 10-10v-1h1c6 0 10-5 10-10v-8c0-6-4-10-10-10h-1v-71h3a20 20 0 0 0 0-40 20 20 0 0 0-17 11v-1a20 20 0 0 0-20-20"/></svg>
